X: 24
T:Stable Lad, The
M:6/8
L:1/8
Q:80
C:Words: Peter Cape, Music: Phil Garland
K:G
d|"G"d2d d2d|dd2- d de|dB2- B AG|"Am"A6-|A3-A2e|!
"D"fff f2f|e2d ddd|d2dB2A|"G"B6-|B6-|B3zdd|!
d2d d BB|"Am"BA2 A3-|A3-A2e|"G"d2B2AG|"Am"A6-|A3-AGG|!
"C"G2g g2f|e2d2 BG|AA2 G2F|G6|z6|z6|z3z2:||
